X: 1
T: Talla Bhreacais
T: Breakish Hall
C: Ronan Martin
R: strathspey
Z: 2013 John Chambers <jc:trillian.mit.edu>
B: Christine Martin "Ho-Ro-Gheallaidh" "Session Tunes for Scottish Fiddlers" v.3 2008
N: (and from the playing of friends in the Boston area)
M: C
L: 1/8
K: D
|:\
"D"A,<D D>A, "Em"B,<E E>G | "Bm"F>E D>A, "G"B,<D B,>A, |\
"D"A,<D D>A, "Em"B,<E E>G | "D(Bm)"F>E D>A, "G"B,<D "D"D2 :|
|:\
"D"F<A A>F "G"G>B B2 | "Bm"(A>F) E>F "D"D>E D<A, |1\
"D"F<A A>F "G"G>B B2 | "D"A>F "A7"E>G "D" F<D D2 :|2\
"D"A,<D D>A, "Em"B,<E E>G | "D"F>E D>A, "G"B,<D "D"D2 |]

